X: 1008
T: Allistrum's March
R: jig
M: 6/8
K: Dmajor
~E3 FDD|EDd cAG|~E3 FDD|EDd A2G|
FGE FDD|EDd cde|fed efg|fed cAG||
Ecc Add|Acc cAG|Ecc Add|edc A2G|
Ecc Add|e2d efg|fef g2f|edc ABG||

